X:327
T:Farewell to Leitrim
T:Return from Camden Town
R:reel
D:Dervish: The Boys of Sligo
D:Altan: Blackwater
Z:id:hn-reel-327
M:C|
K:Dmix
d2AG FADF|Ec~c2 Ecce|dBcA BGAF|GFEG FDfe|
d2AG FADF|EGAB c2ce|decd BcAF|GFEG FDDe||
fd~d2 fdad|fd~d2 ^cdeg|fddA dAdA|^ceag fdde|
fd~d2 ad~d2|egce gceg|a2ge fded|^ceag fedc||
P:variations
d2AG FDDF|Ec~c2 Ecce|decd BcAF|GBAG FDFA|
d2AG FDDF|(3EFG AB c2Bc|dBcA BGAF|GBAG FDDe||
fd~d2 fdad|fd~d2 ^cdeg|fd~d2 fdad|(3B^cd eg fdde|
fd~d2 ad~d2|ec~c2 Gceg|afge fded|^ceag fdec||
P:more variations
d2AG FADF|Ec~c2 Ec~c2|(3dcB cA BGAG|FDEF DEFA|
d2AG FADF|(3EFG AB c2Bc|(3dcB cA BGAF|GFEG FDDe||
fd~d2 fdad|fd~d2 ^cdeg|fd~d2 fdad|^ceag fdde|
fd~d2 adfd|e=c~c2 gceg|afge fded|^ceaf g2fe||

